src/public/img/statistics/setting.svg

<svg width="20" height="20" viewBox="0 0 20 20" fill="none" xmlns="http://www.w3.org/2000/svg">
<path d="M15.9922 4.04169H17.7089" stroke="#F65128" stroke-width="1.5" stroke-linecap="round" stroke-linejoin="round"/>
<path d="M2.29199 4.04169H12.567" stroke="#F65128" stroke-width="1.5" stroke-linecap="round" stroke-linejoin="round"/>
<path d="M14.2841 5.74168C15.2322 5.74168 16.0007 4.98056 16.0007 4.04168C16.0007 3.10279 15.2322 2.34167 14.2841 2.34167C13.336 2.34167 12.5674 3.10279 12.5674 4.04168C12.5674 4.98056 13.336 5.74168 14.2841 5.74168Z" stroke="#F65128" stroke-width="1.5" stroke-linecap="round" stroke-linejoin="round"/>
<path d="M15.9922 15.9583H17.7089" stroke="#F65128" stroke-width="1.5" stroke-linecap="round" stroke-linejoin="round"/>
<path d="M2.29199 15.9583H12.567" stroke="#F65128" stroke-width="1.5" stroke-linecap="round" stroke-linejoin="round"/>
<path d="M14.2841 17.6584C15.2322 17.6584 16.0007 16.8972 16.0007 15.9584C16.0007 15.0195 15.2322 14.2584 14.2841 14.2584C13.336 14.2584 12.5674 15.0195 12.5674 15.9584C12.5674 16.8972 13.336 17.6584 14.2841 17.6584Z" stroke="#F65128" stroke-width="1.5" stroke-linecap="round" stroke-linejoin="round"/>
<path d="M7.43359 10H17.7086" stroke="#F65128" stroke-width="1.5" stroke-linecap="round" stroke-linejoin="round"/>
<path d="M2.29199 10H4.00866" stroke="#F65128" stroke-width="1.5" stroke-linecap="round" stroke-linejoin="round"/>
<path d="M5.71764 11.7C6.66573 11.7 7.43433 10.9389 7.43433 10C7.43433 9.06113 6.66573 8.30002 5.71764 8.30002C4.76955 8.30002 4.00098 9.06113 4.00098 10C4.00098 10.9389 4.76955 11.7 5.71764 11.7Z" stroke="#F65128" stroke-width="1.5" stroke-linecap="round" stroke-linejoin="round"/>
</svg>

<svg xmlns="http://www.w3.org/2000/svg" width="20" height="20" fill="none">
  <path stroke="#F65128" stroke-linecap="round" stroke-linejoin="round" stroke-width="1.5" d="M15.992 4.042h1.717m-15.417 0h10.275m1.717 1.7c.948 0 1.717-.761 1.717-1.7 0-.94-.769-1.7-1.717-1.7-.948 0-1.717.76-1.717 1.7 0 .939.769 1.7 1.717 1.7Zm1.708 10.216h1.717m-15.417 0h10.275m1.717 1.7c.948 0 1.717-.76 1.717-1.7 0-.938-.769-1.7-1.717-1.7a1.71 1.71 0 0 0-1.717 1.7c0 .94.769 1.7 1.717 1.7ZM7.434 10h10.275M2.292 10h1.717m1.709 1.7c.948 0 1.716-.761 1.716-1.7s-.768-1.7-1.716-1.7S4 9.061 4 10s.769 1.7 1.717 1.7Z"/>
</svg>
